X: 12302
T: Fairy Toddler
R: jig
M: 6/8
K: Dmajor
|:E|F2 F FEF|DFA dcd|Bcd AFD|EFD CB,A,|
F2 F F^EF|DF/G/A dcd|B/c/dB AFD|EDC D2:|
|:f|afd A2 f|gec A2 g|fed Bcd|efd cBA|
afd Adf|gec A2 f|gbg faf|gec d2:|

